X:729
L:1/16
M:2/4
K:G
 b4 (c'b)^ab | g4 (ag)fg | a2a2 (ba)ga | (b4 g2)^a2 | b4 (c'b)^ab | g4 (ag)fg | a2a2{b} (aga)b | 
 g2b2g2 z2 || (ag) | (fg)(ef) (de)(cd) | (Bc)AB GABc | defg abc2a | (g4 f2)(ag) | 
 (fg)(ef) (de)(cd) | BcAB GABc | defg abc'f | (a4 g2) z2 || b4 (ag)fe | (e^d) d4 a2 | c'4 (ba)gf | 
 fe e4 c2 | c2 c4 (^de) | e2 B4 a2 | g2f2 e2^d2 | (f4 e2) z2 ||

